X:1
T:Chi riggida
T:Chi riggida (Aria)
T:Giovanni Antonio Rigatti
T:Source : Musische diverse a voce sola---Venetia---B.Magni---1641. Editor : André Vierendeels (26/06/15).
C:Giovanni Antonio Rigatti
%%score 1 { 2 | 3 }
L:1/8
Q:1/4=70
M:3/4
K:F
V:1 treble nm="Soprano" snm="S"
V:2 treble nm="BC" snm="BC"
V:3 bass 
V:1
 z2 z2 F2 | c3 d Bc | A2 F4 | z2 F2 G2 | A2 G2 F2 | G2 C2 c2 | c2 d=B cd | c4 c2 | z2 f2 f2 | %9
w: Chi|rig- gi- da mi|ve- de|bel- la|schie- ra d'A-|man- ti'ha- ver|à sde- * * *|* gno|piz- za-|
w: Chi|ti- mi- da mi|mi- ra|ab- bas-|sar cl'oc- chi'e|si- mo- lat|lo sguar- * * *|* do|cre- de|
w: Co-|si se- gre- t'A-|man- te|ris- ser-|bo nel mio|pet- to'il chiu-|so'ar- do- * * *|* re|chi mi|
 _e3 f ef | d3 e de | c2 dA Bc | B2 cG AB | A2 dc BA | G6 | F6 :: z2 A2 c2 | B2 B2 A2 | F2 GE FG | %19
w: rel- * * *||||* la _ ma- *|gre-|do,|non son|pri- va d'in-|ge- * * * *|
w: ch'io ma- * *||||i so- * * *|spi-|ra,|a- mo|an- ch'io, an-|ch'io ar- * * *|
w: da pe- * *||||* ne _ _ _|tan-|te,|ha la|qua- drel- l'A-|mo- * * * *|
 A4 z2 | z2 E2 E2 | F2 F2 G2 | A2 c2 c2 | d2 d2 e2 | f2 g4- | g2 f2 e2 | d6 | c6 | z2 G2 G2 | %29
w: gno,|i miei|chiu- si pen-|sier, i miei|chiu- si per|fier tut-|* ti non|san-|no,|chi s'in-|
w: do|ma'i- miei|se- gre- te'A-|mor, ma'i miei|se- gre- t'A-|mor tut-|* ti non|san-|no,|chi s'in-|
w: re|è sco-|car- l'ei ben|fa, è sco-|car- l'i ben|fa cru-|* del ti-|ran-|no|pur ch'io|
 c3 d Bc | A2 A2 d2 | d2 ^c2 d2 | d4 A2 | A2 G2 A2 | A6 | z2 E2 E2 | AB AG FE | F2 GA BA | %38
w: gan- * * *|* na suo|dan- * *|no, suo|dan- * *|no,|chi s'in-|gan- * * * * *||
w: gan- * * *|* na suo|dan- * *|no, suo|dan- * *|no,|chi s'in-|dan- * * * * *||
w: go- * * *|* da mio|dan- * *|no, mio|dan- * *|no,|pur ch'io|go- * * * * *||
 Bc BA GF | G2 AB cB | cd cB AG | A4 A2 | z2 z2 d2 | G4 F2 | F6 :| %45
w: |||* na,|suo|dan- *|no.|
w: |||* na,|suo|dan- *|no.|
w: |||* da|mio|dan- *|no.|
V:2
 z6 | z6 | z6 | z6 | z6 | z6 | z6 | z6 | z6 | z6 | z6 | z6 | z6 | z6 | z6 | z6 ::"^Adagio" z6 | %17
 z6 | z6 | z6 |"^Allegro" z6 | z6 | z6 | z6 | z6 | z6 | z6 | z6 | z6 | z6 | z6 | z6 | z6 | z6 | %34
 z6 | z6 | z6 | z6 | z6 | z6 | z6 | z6 | z6 | z6 | z6 :| %45
V:3
 F,6 | E,6 | F,6 | F,4 E,2 | F,6 | E,6 | F,2 D,2 G,2 | C,3 D, B,,C, | A,,4 A,2 | G,6 | F,6 | %11
 E,2 A,,4 | B,,2 E,,4 | F,,4 B,,2 | C,6 | F,,6 :: F,,6 | G,,4 A,,2 | B,,6 | A,,6 | A,,6 | D,4 E,2 | %22
 F,6 | F,2 E,4 | D,2 E,4 | F,6 | G,6 | C,6 | C,6 | A,,4 G,,2 | F,,6 | E,6 | D,6 | B,,6 | A,,6- | %35
 A,,6 | ^C,6 | D,6 | D,6 | E,6 | E,6 | F,6 | z2 z2 B,,2 | C,4 F,,2 | F,,6 :| %45

